src/public/assets/images/api/luma-logo.svg

<?xml version="1.0" encoding="UTF-8" standalone="no"?>
<!-- Generator: Adobe Illustrator 21.0.0, SVG Export Plug-In . SVG Version: 6.00 Build 0)  -->

<svg
   xmlns:dc="http://purl.org/dc/elements/1.1/"
   xmlns:cc="http://creativecommons.org/ns#"
   xmlns:rdf="http://www.w3.org/1999/02/22-rdf-syntax-ns#"
   xmlns:svg="http://www.w3.org/2000/svg"
   xmlns="http://www.w3.org/2000/svg"
   xmlns:sodipodi="http://sodipodi.sourceforge.net/DTD/sodipodi-0.dtd"
   xmlns:inkscape="http://www.inkscape.org/namespaces/inkscape"
   version="1.1"
   id="Warstwa_1"
   x="0px"
   y="0px"
   width="260"
   height="80"
   viewBox="0 0 260.00001 80.000002"
   xml:space="preserve"
   inkscape:version="0.91 r13725"
   sodipodi:docname="luma-logo.svg"><metadata
     id="metadata23"><rdf:RDF><cc:Work
         rdf:about=""><dc:format>image/svg+xml</dc:format><dc:type
           rdf:resource="http://purl.org/dc/dcmitype/StillImage" /><dc:title></dc:title></cc:Work></rdf:RDF></metadata><defs
     id="defs21" /><sodipodi:namedview
     pagecolor="#ffffff"
     bordercolor="#666666"
     borderopacity="1"
     objecttolerance="10"
     gridtolerance="10"
     guidetolerance="10"
     inkscape:pageopacity="0"
     inkscape:pageshadow="2"
     inkscape:window-width="1540"
     inkscape:window-height="699"
     id="namedview19"
     showgrid="true"
     inkscape:zoom="2.7218826"
     inkscape:cx="130.73203"
     inkscape:cy="43.234733"
     inkscape:window-x="0"
     inkscape:window-y="0"
     inkscape:window-maximized="0"
     inkscape:current-layer="Warstwa_1"><inkscape:grid
       type="xygrid"
       id="grid4141" /></sodipodi:namedview><style
     type="text/css"
     id="style3">
	.st0{fill:#1D1D1B;}
	.st1{fill:#595959;}
	.st2{fill:#F63B3B;}
</style><g
     id="g4151"
     transform="matrix(0.45584046,0,0,0.45584046,18,23.863248)"><g
       id="g5"><path
         id="path7"
         d="m 121.9,52 -25.8,0 0,-45.3 9.2,0 0,37.1 16.6,0 0,8.2 z"
         class="st0"
         inkscape:connector-curvature="0"
         style="fill:#1d1d1b" /><path
         id="path9"
         d="m 136,36.8 c 0,5.3 2.7,8 8,8 5.3,0 8,-2.7 8,-8 l 0,-30.1 9.2,0 0,30 c 0,5.5 -1.5,9.7 -4.3,12.2 -2.8,2.7 -7.2,3.8 -13,3.8 -5.8,0 -10.2,-1.3 -13,-3.8 -2.8,-2.7 -4.3,-6.7 -4.3,-12.2 l 0,-30 9.2,0 0,30.1 0.2,0 z"
         class="st0"
         inkscape:connector-curvature="0"
         style="fill:#1d1d1b" /><path
         id="path11"
         d="m 170.8,52 0,-45.3 15.7,0 8,33 8,-33 15.7,0 0,45.3 -9.2,0 0,-35 -1,0 -8.8,33 -9.2,0 -8.8,-33 -1.2,0 0,35 -9.2,0 z"
         class="st0"
         inkscape:connector-curvature="0"
         style="fill:#1d1d1b" /><path
         id="path13"
         d="m 224.1,52 10.2,-45.3 17.5,0 10.1,45.3 -9.2,0 -1.8,-8.2 -15.8,0 -1.8,8.2 -9.2,0 z m 17.3,-37.8 -4.7,21.5 12.3,0 -4.5,-21.5 -3.1,0 z"
         class="st0"
         inkscape:connector-curvature="0"
         style="fill:#1d1d1b" /></g><path
       id="path15"
       d="m 29.6,46.8 -20.3,0 0,-3.2 c 0,-6.2 12.5,-9.5 18.6,-9.5 5.5,0 15.7,2.7 18.1,7.5 1.3,0.8 2.7,2 3.8,3 1.8,-1.7 3.8,-3.2 6,-4.3 l 0,-33.8 C 55.8,3 53,0.3 49.6,0.3 L 6.2,0.3 C 2.7,0.4 0,3.2 0,6.5 L 0,50 c 0,3.5 2.8,6.2 6.2,6.2 l 23.5,0 0,-9.4 z M 28,9.5 c 5.3,0 9.3,4 9.3,9.3 0,5.3 -4,9.3 -9.3,9.3 -5.3,0 -9.3,-4 -9.3,-9.3 -0.1,-5.1 3.9,-9.3 9.3,-9.3 z"
       class="st1"
       inkscape:connector-curvature="0"
       style="fill:#595959" /><path
       id="path17"
       d="M 49.9,49 C 45.2,44.7 39.1,42 32.3,42 l 0,21.5 c 6.8,0 13,2.7 17.6,7 4.7,-4.3 10.8,-7 17.6,-7 l 0,-21.5 c -6.7,0 -12.9,2.6 -17.6,7 l 0,0 z"
       class="st2"
       inkscape:connector-curvature="0"
       style="fill:#f63b3b" /></g></svg>

<?xml version="1.0" encoding="utf-8"?>
<!-- Generator: Adobe Illustrator 21.0.0, SVG Export Plug-In . SVG Version: 6.00 Build 0)  -->
<!DOCTYPE svg PUBLIC "-//W3C//DTD SVG 1.1//EN" "http://www.w3.org/Graphics/SVG/1.1/DTD/svg11.dtd">
<svg version="1.1" id="Warstwa_1" xmlns="http://www.w3.org/2000/svg" xmlns:xlink="http://www.w3.org/1999/xlink" x="0px" y="0px"
	 width="339.8px" height="72.6px" viewBox="0 0 339.8 72.6" style="enable-background:new 0 0 339.8 72.6;" xml:space="preserve">
<style type="text/css">
	.st0{fill:#1D1D1B;}
	.st1{fill:#595959;}
	.st2{fill:#F63B3B;}
</style>
<g>
	<path class="st0" d="M121.9,52H96.1V6.7h9.2v37.1h16.6V52z"/>
	<path class="st0" d="M136,36.8c0,5.3,2.7,8,8,8s8-2.7,8-8V6.7h9.2v30c0,5.5-1.5,9.7-4.3,12.2c-2.8,2.7-7.2,3.8-13,3.8
		c-5.8,0-10.2-1.3-13-3.8c-2.8-2.7-4.3-6.7-4.3-12.2v-30h9.2v30.1H136z"/>
	<path class="st0" d="M170.8,52V6.7h15.7l8,33l8-33h15.7V52H209V17h-1l-8.8,33H190l-8.8-33H180v35H170.8z"/>
	<path class="st0" d="M224.1,52l10.2-45.3h17.5L261.9,52h-9.2l-1.8-8.2h-15.8l-1.8,8.2H224.1z M241.4,14.2l-4.7,21.5h12.3l-4.5-21.5
		H241.4z"/>
</g>
<path class="st1" d="M29.6,46.8H9.3v-3.2c0-6.2,12.5-9.5,18.6-9.5c5.5,0,15.7,2.7,18.1,7.5c1.3,0.8,2.7,2,3.8,3
	c1.8-1.7,3.8-3.2,6-4.3V6.5c0-3.5-2.8-6.2-6.2-6.2H6.2C2.7,0.4,0,3.2,0,6.5V50c0,3.5,2.8,6.2,6.2,6.2h23.5V46.8z M28,9.5
	c5.3,0,9.3,4,9.3,9.3s-4,9.3-9.3,9.3s-9.3-4-9.3-9.3C18.6,13.7,22.6,9.5,28,9.5z"/>
<path class="st2" d="M49.9,49c-4.7-4.3-10.8-7-17.6-7v21.5c6.8,0,13,2.7,17.6,7c4.7-4.3,10.8-7,17.6-7V42C60.8,42,54.6,44.6,49.9,49
	L49.9,49z"/>
</svg>
